assets/icons/chat/text-filled.svg

<?xml version="1.0" encoding="UTF-8" standalone="no"?>
<svg
   viewBox="0 1 24 24"
   version="1.1"
   id="svg10"
   sodipodi:docname="text-filled.svg"
   inkscape:version="1.2 (1:1.2.1+202207142221+cd75a1ee6d)"
   width="24"
   height="24"
   xmlns:inkscape="http://www.inkscape.org/namespaces/inkscape"
   xmlns:sodipodi="http://sodipodi.sourceforge.net/DTD/sodipodi-0.dtd"
   xmlns="http://www.w3.org/2000/svg"
   xmlns:svg="http://www.w3.org/2000/svg"
   xmlns:rdf="http://www.w3.org/1999/02/22-rdf-syntax-ns#"
   xmlns:cc="http://creativecommons.org/ns#"
   xmlns:dc="http://purl.org/dc/elements/1.1/">
  <metadata
     id="metadata16">
    <rdf:RDF>
      <cc:Work
         rdf:about="">
        <dc:format>image/svg+xml</dc:format>
        <dc:type
           rdf:resource="http://purl.org/dc/dcmitype/StillImage" />
      </cc:Work>
    </rdf:RDF>
  </metadata>
  <defs
     id="defs14" />
  <sodipodi:namedview
     pagecolor="#ffffff"
     bordercolor="#666666"
     borderopacity="1"
     objecttolerance="10"
     gridtolerance="10"
     guidetolerance="10"
     inkscape:pageopacity="0"
     inkscape:pageshadow="2"
     inkscape:window-width="1920"
     inkscape:window-height="1016"
     id="namedview12"
     showgrid="true"
     inkscape:zoom="19.445436"
     inkscape:cx="-2.1084639"
     inkscape:cy="9.3852357"
     inkscape:window-x="0"
     inkscape:window-y="0"
     inkscape:window-maximized="1"
     inkscape:current-layer="svg10"
     inkscape:pagecheckerboard="0"
     inkscape:showpageshadow="2"
     inkscape:deskcolor="#d1d1d1">
    <inkscape:grid
       type="xygrid"
       id="grid841" />
  </sodipodi:namedview>
  <path
     id="path864"
     style="color:#000000;fill:#808080;fill-opacity:1;-inkscape-stroke:none"
     d="m 19.212891,3 c -0.225649,-0.00186 -0.462891,0.00195 -0.712891,0.00195 h -13 c -0.2499995,0 -0.4872423,-0.0019 -0.7128906,0 -0.6769451,0.0056 -1.2506028,0.04815 -1.7597656,0.3027344 -0.3394421,0.1697218 -0.6300056,0.462434 -0.796875,0.8378906 -0.1668699,0.3754566 -0.2304688,0.8177095 -0.2304688,1.359375 v 10 c 0,0.541666 0.063599,0.983919 0.2304688,1.359375 0.1668694,0.375457 0.4574329,0.668169 0.796875,0.837891 0.6788838,0.339441 1.4726582,0.302734 2.4726562,0.302734 h 6.769531 l 3.230469,3.767578 3.257812,-3.798828 c 0.858282,0.0028 1.606734,0.03257 2.214844,-0.271484 0.339443,-0.169722 0.630005,-0.462434 0.796875,-0.837891 0.16687,-0.375456 0.230469,-0.817709 0.230469,-1.359375 v -10 c 0,-0.5416655 -0.0636,-0.9839184 -0.230469,-1.359375 -0.16687,-0.3754566 -0.457432,-0.6681688 -0.796875,-0.8378906 -0.509162,-0.2545812 -1.082821,-0.2991003 -1.759765,-0.3046875 z m -13.212891,4 h 12 v 1 h -12 z m 0,2 h 12 v 1 h -12 z m 0,2 h 5 v 1 h -5 z"
     sodipodi:nodetypes="cssccsssssscccssssssscccccccccccccccc" />
</svg>

<?xml version="1.0" encoding="UTF-8" standalone="no"?>
<svg
   viewBox="0 1 24 24"
   version="1.1"
   id="svg10"
   sodipodi:docname="text-filled.svg"
   inkscape:version="1.2 (1:1.2.1+202207142221+cd75a1ee6d)"
   width="24"
   height="24"
   xmlns:inkscape="http://www.inkscape.org/namespaces/inkscape"
   xmlns:sodipodi="http://sodipodi.sourceforge.net/DTD/sodipodi-0.dtd"
   xmlns="http://www.w3.org/2000/svg"
   xmlns:svg="http://www.w3.org/2000/svg"
   xmlns:rdf="http://www.w3.org/1999/02/22-rdf-syntax-ns#"
   xmlns:cc="http://creativecommons.org/ns#"
   xmlns:dc="http://purl.org/dc/elements/1.1/">
  <metadata
     id="metadata16">
    <rdf:RDF>
      <cc:Work
         rdf:about="">
        <dc:format>image/svg+xml</dc:format>
        <dc:type
           rdf:resource="http://purl.org/dc/dcmitype/StillImage" />
      </cc:Work>
    </rdf:RDF>
  </metadata>
  <defs
     id="defs14" />
  <sodipodi:namedview
     pagecolor="#ffffff"
     bordercolor="#666666"
     borderopacity="1"
     objecttolerance="10"
     gridtolerance="10"
     guidetolerance="10"
     inkscape:pageopacity="0"
     inkscape:pageshadow="2"
     inkscape:window-width="1920"
     inkscape:window-height="1043"
     id="namedview12"
     showgrid="true"
     inkscape:zoom="27.499999"
     inkscape:cx="10.145455"
     inkscape:cy="10.4"
     inkscape:window-x="0"
     inkscape:window-y="0"
     inkscape:window-maximized="1"
     inkscape:current-layer="svg10"
     inkscape:pagecheckerboard="0"
     inkscape:showpageshadow="2"
     inkscape:deskcolor="#d1d1d1">
    <inkscape:grid
       type="xygrid"
       id="grid841" />
  </sodipodi:namedview>
  <path
     id="path864"
     style="color:#000000;fill:#808080;fill-opacity:1;-inkscape-stroke:none"
     d="M 19.212891 3 C 18.987242 2.99814 18.75 3.0019531 18.5 3.0019531 L 5.5 3.0019531 C 5.2500005 3.0019531 5.0127577 3.0000531 4.7871094 3.0019531 C 4.1101643 3.0075531 3.5365066 3.0501034 3.0273438 3.3046875 C 2.6879017 3.4744093 2.3973382 3.7671215 2.2304688 4.1425781 C 2.0635989 4.5180347 2 4.9602876 2 5.5019531 L 2 15.501953 C 2 16.043619 2.0635991 16.485872 2.2304688 16.861328 C 2.3973382 17.236785 2.6879017 17.529497 3.0273438 17.699219 C 3.7062276 18.03866 4.500002 18.001953 5.5 18.001953 L 12.269531 18.001953 L 15.5 21.769531 L 18.757812 17.970703 C 19.616094 17.973503 20.364546 18.003272 20.972656 17.699219 C 21.312099 17.529497 21.602661 17.236785 21.769531 16.861328 C 21.936401 16.485872 22 16.043619 22 15.501953 L 22 5.5019531 C 22 4.9602876 21.9364 4.5180347 21.769531 4.1425781 C 21.602661 3.7671215 21.312099 3.4744093 20.972656 3.3046875 C 20.463494 3.0501063 19.889835 3.0055872 19.212891 3 z M 5 7 L 19 7 L 19 8 L 5 8 L 5 7 z M 5 9 L 19 9 L 19 10 L 5 10 L 5 9 z M 5 11 L 12 11 L 12 12 L 5 12 L 5 11 z " />
</svg>
